tenants/donaldduck/icons/channel_facebook.svg

<svg fill="none" height="32" viewBox="0 0 32 32" width="32" xmlns="http://www.w3.org/2000/svg"><circle cx="16" cy="16" fill="#d20019" r="16"/><path d="m19.1742 9.61816h1.8258v-3.17968c-.3144-.04297-1.3977-.14063-2.6591-.14063-2.6326 0-4.4356 1.65625-4.4356 4.69925v2.8008h-2.9053v3.5546h2.9053v8.9454h3.5606v-8.9454h2.7879l.4432-3.5546h-3.2311v-2.4493c0-1.0273.2765-1.73044 1.7083-1.73044z" fill="#fff"/></svg>

<svg width="32" height="32" viewBox="0 0 32 32" fill="none" xmlns="http://www.w3.org/2000/svg">
<circle cx="16" cy="16" r="16" fill="#D20019"/>
<path d="M19.1742 9.61816H21V6.43848C20.6856 6.39551 19.6023 6.29785 18.3409 6.29785C15.7083 6.29785 13.9053 7.9541 13.9053 10.9971V13.7979H11V17.3525H13.9053V26.2979H17.4659V17.3525H20.2538L20.697 13.7979H17.4659V11.3486C17.4659 10.3213 17.7424 9.61816 19.1742 9.61816Z" fill="white"/>
</svg>
